X:202
T:Spirit of the dance
R:jig
M:6/8
L:1/8
K:G
G2D E2D | G2D E2D | GAB c2B | A2G FED | G2D E2D | G2D E2D | GAB cde | cAF G3 ::
DGB c3  | B3  A3  | ABc d3  | c3  B3  | GAB c3  | B3  A3  | ABc Bcd | B2A G3 :|
